X:53
T:Untitled March.#43 JBs.053
S:Jas.Blackshaw MS, 1837, N.Shropshire
Z:Tony Weatherall 2006
M:2/4
L:1/8
Q:1/4=100
A:North Shropshire
R:March
K:F
c|f2a2|câ€™2zf/f/|fc/c/ cA/A/|AF zc|!
defg|a2zcâ€™/câ€™/|bg/g/ ge/e/|ec zc|!
ff g/f/e/f/|df g/f/e/f/|cf e/f/g/a/|!
b2ge|ff g/f/e/f/|df g/f/e/f/|ea/g/ da/g/|c3:|!
|:z|c2eg|b2zb/b/|bg/g/ ge/e/|eczc|f2acâ€™|!
f2zf/f/|f/b/b/b/ aa|af cA|df g/f/e/f/|df cf|!
df g/f/e/f/|df cf|dbbb|dâ€™2bg|câ€™>g câ€™/b/g/e/|g2f:|

